epam-assets/icon-sources/18/action-align-right.svg

<svg width="18" height="18" viewBox="0 0 18 18" fill="none" xmlns="http://www.w3.org/2000/svg">
<g id="18/action-align-right">
<path id="icon" fill-rule="evenodd" clip-rule="evenodd" d="M9.75 12V9.75H2.25V8.25H9.75V6L12.75 9L9.75 12ZM15.75 15H14.25V3H15.75V15Z" fill="#6C6F80"/>
</g>
</svg>

<svg xmlns="http://www.w3.org/2000/svg" width="18" height="18" fill="none" viewBox="0 0 18 18">
  <path fill="#6C6F80" fill-rule="evenodd" d="M9.75 12V9.75h-7.5v-1.5h7.5V6l3 3-3 3Zm6 3h-1.5V3h1.5v12Z" clip-rule="evenodd"/>
</svg>
